icons/tex.svg

<svg xmlns="http://www.w3.org/2000/svg" viewBox="0 0 16 16"><path fill="#4e85f4" d="M15.866 9.727a1.4 1.4 0 0 1-.524-.07.9.9 0 0 1-.311-.273l-1.947-2.767 1.245-1.789a1.6 1.6 0 0 1 .429-.383 1.75 1.75 0 0 1 .895-.172V4H13.5v.273a.6.6 0 0 1 .406.129.38.38 0 0 1 .146.285 1 1 0 0 1-.008.105.2.2 0 0 1-.063.105l-1.04 1.516-1.181-1.726-.035-.043-.035-.09a.24.24 0 0 1 .15-.2.8.8 0 0 1 .41-.086V4H9.742v.273h.142a1.8 1.8 0 0 1 .544.063.54.54 0 0 1 .284.219l1.671 2.477-1.459 2.14a1.5 1.5 0 0 1-.374.355 1.67 1.67 0 0 1-.95.2V10h.513a3.4 3.4 0 0 1-.434 1.242 1.69 1.69 0 0 1-1.466.484H7.031a.54.54 0 0 1-.367-.07.5.5 0 0 1-.051-.273V9.031h.764a.98.98 0 0 1 .8.234 1.4 1.4 0 0 1 .173.8h.21V7.727h-.213a1.6 1.6 0 0 1-.146.8.98.98 0 0 1-.824.23h-.764v-2.14a.5.5 0 0 1 .051-.273.54.54 0 0 1 .367-.07h1.111a1.64 1.64 0 0 1 1.336.4A2.9 2.9 0 0 1 9.884 8h.2l-.271-2H5.772l-.137-1.93H.142L0 6.07h.2a3.1 3.1 0 0 1 .367-1.406 1.64 1.64 0 0 1 1.245-.32h.482a.165.165 0 0 1 .185.094 1 1 0 0 1 .028.25v4.625a.4.4 0 0 1-.114.309 1.6 1.6 0 0 1-.792.105h-.419V10h3.342v-.273H4.24a1.6 1.6 0 0 1-.788-.105.4.4 0 0 1-.11-.309V4.688a1 1 0 0 1 .016-.223.2.2 0 0 1 .118-.121h.489a1.64 1.64 0 0 1 1.245.32A2.9 2.9 0 0 1 5.558 6h-.687v.273h.2a1.3 1.3 0 0 1 .615.078.46.46 0 0 1 .087.336v4.625a.46.46 0 0 1-.087.336 1.3 1.3 0 0 1-.615.078h-.2V12h5.147l.305-2h1.508v-.273a.53.53 0 0 1-.437-.156.47.47 0 0 1-.122-.258 1 1 0 0 1 .008-.105.2.2 0 0 1 .062-.108L12.6 7.242l1.387 2.141a.05.05 0 0 0 .035.055l.035.008a.24.24 0 0 1-.146.2.8.8 0 0 1-.406.086V10H16v-.273z" data-iconColor="TeX"/></svg>

<!--
  - The MIT License (MIT)
  -
  - Copyright (c) 2015-2024 Elior "Mallowigi" Boukhobza
  -
  - Permission is hereby granted, free of charge, to any person obtaining a copy
  - of this software and associated documentation files (the "Software"), to deal
  - in the Software without restriction, including without limitation the rights
  - to use, copy, modify, merge, publish, distribute, sublicense, and/or sell
  - copies of the Software, and to permit persons to whom the Software is
  - furnished to do so, subject to the following conditions:
  -
  - The above copyright notice and this permission notice shall be included in all
  - copies or substantial portions of the Software.
  -
  - THE SOFTWARE IS PROVIDED "AS IS", WITHOUT WARRANTY OF ANY KIND, EXPRESS OR
  - IMPLIED, INCLUDING BUT NOT LIMITED TO THE WARRANTIES OF MERCHANTABILITY,
  - FITNESS FOR A PARTICULAR PURPOSE AND NONINFRINGEMENT. IN NO EVENT SHALL THE
  - AUTHORS OR COPYRIGHT HOLDERS BE LIABLE FOR ANY CLAIM, DAMAGES OR OTHER
  - LIABILITY, WHETHER IN AN ACTION OF CONTRACT, TORT OR OTHERWISE, ARISING FROM,
  - OUT OF OR IN CONNECTION WITH THE SOFTWARE OR THE USE OR OTHER DEALINGS IN THE
  - SOFTWARE.
  -
  -->

<svg xmlns="http://www.w3.org/2000/svg" width="16px" height="16px" viewBox="0 0 16 16">
  <path fill="#4E85F4" data-iconColor="TeX"
        d="M15.866,9.727a1.379,1.379,0,0,1-.524-0.07,0.885,0.885,0,0,1-.311-0.273L13.084,6.617l1.245-1.789a1.581,1.581,0,0,1,.429-0.383,1.746,1.746,0,0,1,.895-0.172V4H13.5V4.273a0.592,0.592,0,0,1,.406.129,0.377,0.377,0,0,1,.146.285,0.681,0.681,0,0,1-.008.105,0.2,0.2,0,0,1-.063.105l-1.04,1.516L11.76,4.687l-0.035-.043-0.035-.09a0.24,0.24,0,0,1,.15-0.2,0.825,0.825,0,0,1,.41-0.086V4H9.742V4.273H9.884a1.775,1.775,0,0,1,.544.063,0.54,0.54,0,0,1,.284.219l1.671,2.477L10.924,9.172a1.537,1.537,0,0,1-.374.355,1.672,1.672,0,0,1-.95.2V10h0.513a3.433,3.433,0,0,1-.434,1.242,1.691,1.691,0,0,1-1.466.484H7.031a0.541,0.541,0,0,1-.367-0.07,0.5,0.5,0,0,1-.051-0.273V9.031H7.377a0.98,0.98,0,0,1,.8.234,1.4,1.4,0,0,1,.173.8H8.56V7.727H8.347a1.59,1.59,0,0,1-.146.8,0.984,0.984,0,0,1-.824.23H6.613V6.617a0.5,0.5,0,0,1,.051-0.273,0.541,0.541,0,0,1,.367-0.07H8.142a1.639,1.639,0,0,1,1.336.4A2.868,2.868,0,0,1,9.884,8h0.2L9.813,6H5.772L5.635,4.07H0.142L0,6.07H0.2A3.067,3.067,0,0,1,.567,4.664a1.638,1.638,0,0,1,1.245-.32H2.294a0.165,0.165,0,0,1,.185.094,0.914,0.914,0,0,1,.028.25V9.313a0.4,0.4,0,0,1-.114.309,1.605,1.605,0,0,1-.792.105H1.182V10H4.524V9.727H4.24a1.578,1.578,0,0,1-.788-0.105,0.407,0.407,0,0,1-.11-0.309V4.688a1.088,1.088,0,0,1,.016-0.223,0.208,0.208,0,0,1,.118-0.121H3.965a1.638,1.638,0,0,1,1.245.32A2.891,2.891,0,0,1,5.558,6H4.871V6.273h0.2a1.292,1.292,0,0,1,.615.078,0.462,0.462,0,0,1,.087.336v4.625a0.463,0.463,0,0,1-.087.336,1.291,1.291,0,0,1-.615.078h-0.2V12h5.147l0.305-2h1.508V9.727a0.526,0.526,0,0,1-.437-0.156,0.465,0.465,0,0,1-.122-0.258,0.681,0.681,0,0,1,.008-0.105A0.2,0.2,0,0,1,11.342,9.1L12.6,7.242l1.387,2.141a0.048,0.048,0,0,0,.035.055l0.035,0.008a0.239,0.239,0,0,1-.146.2,0.8,0.8,0,0,1-.406.086V10H16V9.727H15.866Z"
  />
</svg>
